packages/icons/src/lib/svgs/eye-closed.svg

<svg aria-hidden="true" data-testid="test-icon" fill="currentColor" viewBox="0 0 24 24" xmlns="http://www.w3.org/2000/svg"><path d="M16 12c0-2.21-1.79-4-4-4-.06 0-.11.01-.17.02l4.15 4.15c.01-.06.02-.11.02-.17zM12.68 15.93l-4.61-4.61c-.04.22-.07.45-.07.68 0 2.21 1.79 4 4 4 .23 0 .46-.03.68-.07z"/><path d="M12 18.01c-.65 0-1.29-.11-1.91-.28-1.3-.4-2.48-1.08-3.47-1.97-.07-.06-.14-.11-.2-.18-.07-.07-.14-.15-.21-.22-.85-.89-1.56-1.98-2.08-3.23-.01-.03-.04-.08-.05-.12.02-.05.04-.09.06-.14.44-1.05 1.02-1.98 1.7-2.79L4.4 7.66c-.05.06-.11.12-.17.18-.75.88-1.36 1.87-1.82 2.95-.12.28-.24.57-.35.87a1.03 1.03 0 000 .7c.11.29.23.58.35.86a11.45 11.45 0 001.82 2.95c2 2.41 4.78 3.84 7.77 3.84 1.36 0 2.68-.3 3.9-.86l-1.55-1.55c-.75.27-1.54.41-2.35.41zM21.94 11.66c-.14-.39-.31-.77-.49-1.14v-.01C19.55 6.52 15.96 4 12 4c-1.21 0-2.39.25-3.49.69l1.59 1.59C10.72 6.11 11.35 6 12 6c2.89 0 5.56 1.73 7.19 4.52.08.14.16.28.23.43.14.27.27.54.4.83.03.08.07.15.1.23-.03.08-.07.15-.1.23-.12.29-.26.56-.4.83-.08.14-.15.29-.23.43-.23.4-.49.77-.76 1.12l1.43 1.43c.61-.76 1.15-1.61 1.59-2.54v-.01c.18-.37.34-.75.49-1.14a1.03 1.03 0 000-.7zM15.66 13.61l-3.67-3.66-1.94-1.94-1.22-1.23L7.05 5a1.25 1.25 0 00-1.77 0c-.48.49-.48 1.27-.01 1.76l.01.01L6.7 8.18l10.84 10.84c.24.24.56.37.88.37.32 0 .64-.12.88-.37.49-.49.49-1.28 0-1.77l-3.64-3.64z"/></svg>

<svg
        aria-hidden="true"
        data-testid="test-icon"
        fill="none"
        
        viewBox="0 0 24 24"
        
        xmlns="http://www.w3.org/2000/svg"
        
    >
        <title>eye closed icon</title>
        <path
            d="M16 12C16 9.79 14.21 8 12 8C11.94 8 11.89 8.01 11.83 8.02L15.98 12.17C15.99 12.11 16 12.06 16 12Z"
            fill="currentColor"
        />
        <path
            d="M12.68 15.93L8.07 11.32C8.03 11.54 8 11.77 8 12C8 14.21 9.79 16 12 16C12.23 16 12.46 15.97 12.68 15.93Z"
            fill="currentColor"
        />
        <path
            d="M12 18.01C11.35 18.01 10.71 17.9 10.09 17.73C8.79 17.33 7.61 16.65 6.62 15.76C6.55 15.7 6.48 15.65 6.42 15.58C6.35 15.51 6.28 15.43 6.21 15.36C5.36 14.47 4.65 13.38 4.13 12.13C4.12 12.1 4.09 12.05 4.08 12.01C4.1 11.96 4.12 11.92 4.14 11.87C4.58 10.82 5.16 9.89 5.84 9.08L4.4 7.66C4.35 7.72 4.29 7.78 4.23 7.84C3.48 8.72 2.87 9.71 2.41 10.79C2.29 11.07 2.17 11.36 2.06 11.66C2.02 11.77 2 11.89 2 12.01C2 12.13 2.02 12.25 2.06 12.36C2.17 12.65 2.29 12.94 2.41 13.22C2.87 14.3 3.48 15.29 4.23 16.17C6.23 18.58 9.01 20.01 12 20.01C13.36 20.01 14.68 19.71 15.9 19.15L14.35 17.6C13.6 17.87 12.81 18.01 12 18.01Z"
            fill="currentColor"
        />
        <path
            d="M21.94 11.66C21.8 11.27 21.63 10.89 21.45 10.52C21.45 10.52 21.45 10.52 21.45 10.51C19.55 6.52 15.96 4 12 4C10.79 4 9.61 4.25 8.51 4.69L10.1 6.28C10.72 6.11 11.35 6 12 6C14.89 6 17.56 7.73 19.19 10.52C19.27 10.66 19.35 10.8 19.42 10.95C19.56 11.22 19.69 11.49 19.82 11.78C19.85 11.86 19.89 11.93 19.92 12.01C19.89 12.09 19.85 12.16 19.82 12.24C19.7 12.53 19.56 12.8 19.42 13.07C19.34 13.21 19.27 13.36 19.19 13.5C18.96 13.9 18.7 14.27 18.43 14.62L19.86 16.05C20.47 15.29 21.01 14.44 21.45 13.51C21.45 13.51 21.45 13.51 21.45 13.5C21.63 13.13 21.79 12.75 21.94 12.36C21.98 12.25 22 12.13 22 12.01C22 11.89 21.98 11.77 21.94 11.66Z"
            fill="currentColor"
        />
        <path
            d="M15.66 13.61L11.99 9.95L10.05 8.01L8.83 6.78L7.05 5C6.56 4.51 5.77 4.51 5.28 5C4.8 5.49 4.8 6.27 5.27 6.76L5.28 6.77L6.7 8.18L17.54 19.02C17.78 19.26 18.1 19.39 18.42 19.39C18.74 19.39 19.06 19.27 19.3 19.02C19.79 18.53 19.79 17.74 19.3 17.25L15.66 13.61Z"
            fill="currentColor"
        />
    </svg>
